packages/katcn/src/icons/svg/trash.svg

<svg width="24" height="25" viewBox="0 0 24 25" fill="none" xmlns="http://www.w3.org/2000/svg">
<path fill-rule="evenodd" clip-rule="evenodd" d="M7.39999 2.31201C7.39999 1.75973 7.84771 1.31201 8.39999 1.31201H15.6C16.1523 1.31201 16.6 1.75973 16.6 2.31201C16.6 2.8643 16.1523 3.31201 15.6 3.31201H8.39999C7.84771 3.31201 7.39999 2.8643 7.39999 2.31201ZM1 5.91201C1 5.35973 1.44772 4.91201 2 4.91201H22C22.5523 4.91201 23 5.35973 23 5.91201C23 6.46429 22.5523 6.91201 22 6.91201H20.6V18.712C20.6 21.2643 18.5523 23.312 16 23.312H7.99999C5.42984 23.312 3.39999 21.2463 3.39999 18.612V6.91201H2C1.44772 6.91201 1 6.46429 1 5.91201ZM5.39999 6.91201V18.612C5.39999 20.1778 6.57015 21.312 7.99999 21.312H16C17.4477 21.312 18.6 20.1597 18.6 18.712V6.91201H5.39999ZM9.3 9.51201C9.85229 9.51201 10.3 9.95973 10.3 10.512V17.812C10.3 18.3643 9.85229 18.812 9.3 18.812C8.74772 18.812 8.3 18.3643 8.3 17.812V10.512C8.3 9.95973 8.74772 9.51201 9.3 9.51201ZM14.7 9.51201C15.2523 9.51201 15.7 9.95973 15.7 10.512V17.812C15.7 18.3643 15.2523 18.812 14.7 18.812C14.1477 18.812 13.7 18.3643 13.7 17.812V10.512C13.7 9.95973 14.1477 9.51201 14.7 9.51201Z" fill="black"/>
</svg>

<svg xmlns="http://www.w3.org/2000/svg" fill="none" viewBox="0 0 24 25"><path fill="#000" fill-rule="evenodd" d="M7.4 2.312a1 1 0 0 1 1-1h7.2a1 1 0 1 1 0 2H8.4a1 1 0 0 1-1-1M1 5.912a1 1 0 0 1 1-1h20a1 1 0 1 1 0 2h-1.4v11.8c0 2.552-2.048 4.6-4.6 4.6H8c-2.57 0-4.6-2.066-4.6-4.7v-11.7H2a1 1 0 0 1-1-1m4.4 1v11.7c0 1.566 1.17 2.7 2.6 2.7h8c1.448 0 2.6-1.152 2.6-2.6v-11.8zm3.9 2.6a1 1 0 0 1 1 1v7.3a1 1 0 1 1-2 0v-7.3a1 1 0 0 1 1-1m5.4 0a1 1 0 0 1 1 1v7.3a1 1 0 1 1-2 0v-7.3a1 1 0 0 1 1-1" clip-rule="evenodd"/></svg>
